X: 15410
T: Glen Allen
R: reel
M: 4/4
K: Gmajor
|:DE|G2 DG EGDE|G2 BG AGEG|A2 EA FAEA|ABcd edBA|
G2 DG EGDE|G2 BG AGEG|cBcd efge|dBAB G2:|
|:Bd|g2 dg egde|g2 bg ageg|a2 ea faea|a2 bg agef|
g2 dg egde|g2 bg aged|cBcd efge|dBAB G2:|

